packages/icons/src/svg/tic-positive.svg

<svg xmlns="http://www.w3.org/2000/svg" viewBox="0 0 16 16">
  <g>
    <path d="M13.4464,7.9912 C13.4464,7.6472 13.6514,7.3512 13.9454,7.2172 C13.5954,4.5452 11.4724,2.4252 8.7994,2.0792 C8.6584,2.3552 8.3724,2.5452 8.0404,2.5452 C7.7084,2.5452 7.4214,2.3542 7.2804,2.0762 C4.5914,2.4152 2.4544,4.5502 2.1124,7.2382 C2.3824,7.3812 2.5674,7.6642 2.5674,7.9912 C2.5674,8.3192 2.3824,8.6022 2.1114,8.7452 C2.4494,11.4322 4.5814,13.5682 7.2674,13.9132 C7.3744,13.6862 7.5764,13.5152 7.8224,13.4512 L7.8224,10.1872 L5.1714,10.1842 C4.4414,10.1842 3.8484,9.5772 3.8484,8.8262 C3.8484,8.1612 4.3164,7.6102 4.9314,7.4942 C4.8814,7.3722 4.8534,7.2372 4.8534,7.0962 C4.8534,6.5272 5.3024,6.0662 5.8564,6.0662 C5.9224,6.0662 5.9864,6.0752 6.0494,6.0882 C6.4234,5.3892 7.1584,4.9152 8.0054,4.9152 C9.0684,4.9152 9.9554,5.6632 10.1724,6.6622 C10.2504,6.6502 10.3294,6.6422 10.4104,6.6422 C11.3644,6.6422 12.1374,7.4362 12.1374,8.4162 C12.1374,9.3962 11.3644,10.1902 10.4104,10.1902 L8.2594,10.1872 L8.2594,13.4532 C8.5024,13.5182 8.7014,13.6872 8.8064,13.9112 C11.4794,13.5612 13.5994,11.4392 13.9464,8.7662 C13.6514,8.6332 13.4464,8.3362 13.4464,7.9912"/>
    <path d="M14.4893,8.8213 C14.1183,11.7523 11.8003,14.0753 8.8703,14.4523 C8.7883,14.8383 8.4473,15.1263 8.0373,15.1263 C7.6293,15.1263 7.2883,14.8393 7.2053,14.4543 C4.2713,14.0843 1.9473,11.7623 1.5723,8.8303 C1.1703,8.7613 0.8643,8.4133 0.8643,7.9913 C0.8643,7.5693 1.1703,7.2203 1.5733,7.1523 C1.9513,4.2243 4.2733,1.9073 7.2043,1.5363 C7.2783,1.1413 7.6243,0.8423 8.0403,0.8423 C8.4583,0.8423 8.8053,1.1423 8.8783,1.5393 C11.8013,1.9203 14.1143,4.2363 14.4883,7.1623 C14.8663,7.2483 15.1493,7.5873 15.1493,7.9913 C15.1493,8.3963 14.8673,8.7343 14.4893,8.8213 M8.0003,0.0003 C3.5813,0.0003 0.0003,3.5823 0.0003,8.0003 C0.0003,12.4183 3.5813,16.0003 8.0003,16.0003 C12.4183,16.0003 16.0003,12.4183 16.0003,8.0003 C16.0003,3.5823 12.4183,0.0003 8.0003,0.0003"/>
  </g>
</svg>

<svg xmlns="http://www.w3.org/2000/svg" viewBox="0 0 16 16">
	<path d="M13.446 7.991a.85.85 0 0 1 .5-.774A5.978 5.978 0 0 0 8.798 2.08a.852.852 0 0 1-1.519-.003 5.979 5.979 0 0 0-5.168 5.162.852.852 0 0 1 0 1.507 5.978 5.978 0 0 0 5.155 5.168.852.852 0 0 1 .555-.462v-3.264l-2.65-.003c-.73 0-1.324-.607-1.324-1.358 0-.665.468-1.216 1.083-1.332a1.05 1.05 0 0 1-.078-.398c0-.569.45-1.03 1.003-1.03.066 0 .13.01.193.022a2.219 2.219 0 0 1 4.123.574 1.56 1.56 0 0 1 .238-.02c.954 0 1.727.794 1.727 1.774s-.773 1.774-1.727 1.774l-2.15-.003v3.266a.845.845 0 0 1 .546.458 5.98 5.98 0 0 0 5.14-5.145.85.85 0 0 1-.5-.775"/>
	<path d="M14.49 8.821a6.512 6.512 0 0 1-5.62 5.631.85.85 0 0 1-1.665.002A6.511 6.511 0 0 1 1.572 8.83a.851.851 0 0 1 .001-1.678 6.512 6.512 0 0 1 5.631-5.616.851.851 0 0 1 1.674.003 6.514 6.514 0 0 1 5.61 5.623.851.851 0 0 1 .001 1.66M8 0a8 8 0 0 0-8 8 8 8 0 1 0 16 0 8 8 0 0 0-8-8"/>
</svg>
